X: 49
T: Stomp Dance Song (e)
C: Anon.
%%abc-version 2.0
%%abcx-abcm2ps-target-version 5.9.1 (29 Sep 2008)
%%abc-creator hum2abc beta
%%abcx-conversion-date 2020/08/10 20:56:09
%%abc-copyright Electronic Copyright 2000 David Huron
%%abc-edited-by David Huron
%%abcx-initial-encoding-date August 29, 2000
%%humdrum-veritas 3743399448
%%humdrum-veritas-data 341044910
%%linebreak <none>
%%barnumbers 0
L: 1/16
M: 3/4
Q: 1/4=72
K: Bb clef=bass
G,2 A,2 B,2< G,2 G,2 G,2 | 
G,2 E, D, G, G, G, F, G,2 G,2 | 
G,2 A,2 B,2< G,2 G,2 G,2 | 
G,2 E, D, G, G, G, F, G,2 G,3/ C/ | 
C2> B,2 B,2 G,2 G, G,2 z[M:2/4] | 
G,2 E, D, G, G, G, F, | 
G,2 G,2 G,2 G, z | 
B,2 G,2 G, G,2 z | 
G,2 G, G, G,2 G,2[M:3/4] | 
G,2 E, D, G, G, G, F, G,2 G, z | 
B, G,2 G, B,2 G,2 G, G,2 z | 
G,2 E, D, G, G, G, F, G,2 G,3/ B,/ | 
B,2> C2 C2 B,2 B, G,2 z | 
G,2 E, D, G, G, G, F, G,2 G,2 | 
B, G,2 G,2< B,2 G, G, G,2 z | 
G,2 E, D, G, G, G, F, G,2 G,2 | 
B, G,2 G, B,2 G,2 G, G,2 z | 
G,2 E, D, G, G, G, F, G,2 G,3/ G,/ | 
G,4G,2 z2z4 |]  


